; HEADER_BLOCK_START
; generated by Creality_Print V6.3.0.3420 on 2025-12-26 at 09:40:57
; total layer number: 673
; filament_density: 1.25
; filament_diameter: 1.75
; max_z_height: 90.92
; creality_uuid: 78e6ba57-e75b-440e-a8ef-e24c0f0eac26
; HEADER_BLOCK_END

; MINX = 100.00
; MINY = 100.00
; MINZ = 0.00
; MAXX = 200.00
; MAXY = 200.00
; MAXZ = 91.00

; multicolor_method = 0 
; THUMBNAIL_BLOCK_START

;
; THUMBNAIL_BLOCK_END

; THUMBNAIL_BLOCK_START

;
; THUMBNAIL_BLOCK_END

; external perimeters extrusion width = 0.42mm
; perimeters extrusion width = 0.45mm
; infill extrusion width = 0.45mm
; solid infill extrusion width = 0.42mm
; top infill extrusion width = 0.42mm
; support material extrusion width = 0.40mm
; first layer extrusion width = 0.50mm

; EXECUTABLE_BLOCK_START
EXCLUDE_OBJECT_DEFINE NAME=Крышка_Кубсата.stl_id_0_copy_0 CENTER=150,150 POLYGON=[[100,111],[105,105],[111,100],[189,100],[195,105],[200,111],[200,189],[195,195],[189,200],[111,200],[105,195],[100,189],[100,111]]
M73 P0 R46
M106 S0
M106 P2 S0
; max_print_temp = 50,230
;TYPE:Custom
M141 S35;set chamber_temperature
START_PRINT EXTRUDER_TEMP=230 BED_TEMP=50
T0
M204 S2000
M104 S230
G1 Z3 F600
M83
G92 E0
G1 Z1 F600
G90
G21
M83 ; use relative distances for extrusion
G1 E-.8 F1800
G1 Z.2 F30000
M106 S0
;LAYER_CHANGE
;Z:0.2
;HEIGHT:0.2
;BEFORE_LAYER_CHANGE
;0.2
G92 E0

;AFTER_LAYER_CHANGE
;0.2
;_SET_FAN_SPEED_CHANGING_LAYER
SET_VELOCITY_LIMIT ACCEL=1000 ACCEL_TO_DECEL=1000
SET_VELOCITY_LIMIT SQUARE_CORNER_VELOCITY=20
; printing object Крышка Кубсата.stl id:0 copy 0
EXCLUDE_OBJECT_START NAME=Крышка_Кубсата.stl_id_0_copy_0
G1 X188.143 Y195.057 Z.6 F30000
G1 Z.2
G1 E.8 F1800
;TYPE:Inner wall
;WIDTH:0.5
G1 F3600
G1 X188.143 Y199.143 E.14752
G1 X111.857 Y199.143 E2.75438
G1 X111.857 Y194.143 E.18053
G1 X105.857 Y194.143 E.21664
G1 X105.857 Y188.143 E.21664
G1 X100.857 Y188.143 E.18053
G1 X100.857 Y111.857 E2.75438
G1 X105.857 Y111.857 E.18053
G1 X105.857 Y105.857 E.21664
G1 X111.857 Y105.857 E.21664
G1 X111.857 Y100.857 E.18053
G1 X188.143 Y100.857 E2.75438
G1 X188.143 Y105.857 E.18053
G1 X194.143 Y105.857 E.21664
G1 X194.143 Y111.857 E.21664
G1 X199.143 Y111.857 E.18053
G1 X199.143 Y188.143 E2.75438
G1 X194.143 Y188.143 E.18053
G1 X194.143 Y194.143 E.21664
G1 X188.143 Y194.143 E.21664
G1 X188.143 Y195.017 E.03156
G1 X188.6 Y194.6 F30000
;TYPE:Outer wall
G1 F3600
G1 X188.6 Y199.6 E.18053
G1 X111.4 Y199.6 E2.78738
G1 X111.4 Y194.6 E.18053
G1 X105.4 Y194.6 E.21664
G1 X105.4 Y188.6 E.21664
G1 X100.4 Y188.6 E.18053
G1 X100.4 Y111.4 E2.78738
G1 X105.4 Y111.4 E.18053
G1 X105.4 Y105.4 E.21664
G1 X111.4 Y105.4 E.21664
G1 X111.4 Y100.4 E.18053
G1 X188.6 Y100.4 E2.78738
G1 X188.6 Y105.4 E.18053
G1 X194.6 Y105.4 E.21664
G1 X194.6 Y111.4 E.21664
G1 X199.6 Y111.4 E.18053
G1 X199.6 Y188.6 E2.78738
G1 X194.6 Y188.6 E.18053
G1 X194.6 Y194.6 E.21664
G1 X188.64 Y194.6 E.21519
G1 E-.8 F1800
G1 Z.6 F30000
G1 X199.006 Y112.567 Z.6
G1 Z.2
G1 E.8 F1800
;TYPE:Bottom surface
;WIDTH:0.500757
G1 F3600
G1 X198.638 Y112.2 E.01879
G1 X197.991 Y112.2 E.02342
G1 X198.8 Y113.009 E.04139
G1 X198.8 Y113.657 E.02342
G1 X197.343 Y112.2 E.0745
G1 X196.696 Y112.2 E.02342
G1 X198.8 Y114.304 E.10762
G1 X198.8 Y114.951 E.02342
G1 X196.049 Y112.2 E.14073
G1 X195.401 Y112.2 E.02342
G1 X198.8 Y115.599 E.17385
G1 X198.8 Y116.246 E.02342
G1 X194.548 Y111.994 E.21749
G1 E-.8 F1800
G1 Z.6 F30000
G1 X194.006 Y106.92 Z.6
G1 Z.2
G1 E.8 F1800
G1 F3600
G1 X193.286 Y106.2 E.03682
G1 X192.638 Y106.2 E.02342
G1 X193.8 Y107.362 E.05942
G1 X193.8 Y108.009 E.02342
G1 X191.991 Y106.2 E.09253
G1 X191.343 Y106.2 E.02342
G1 X193.8 Y108.657 E.12565
G1 X193.8 Y109.304 E.02342
G1 X190.696 Y106.2 E.15876
G1 X190.049 Y106.2 E.02342
G1 X193.8 Y109.951 E.19188
G1 X193.8 Y110.599 E.02342
G1 X189.401 Y106.2 E.225
G1 X188.754 Y106.2 E.02342
G1 X194.006 Y111.452 E.26863
G1 E-.8 F1800
G1 Z.6 F30000
G1 X188.006 Y101.567 Z.6
G1 Z.2
G1 E.8 F1800
G1 F3600
G1 X187.638 Y101.2 E.01879
G1 X186.991 Y101.2 E.02342
G1 X187.8 Y102.009 E.04139
G1 X187.8 Y102.657 E.02342
G1 X186.343 Y101.2 E.0745
G1 X185.696 Y101.2 E.02342
G1 X187.8 Y103.304 E.10762
G1 X187.8 Y103.951 E.02342
G1 X185.049 Y101.2 E.14073
G1 X184.401 Y101.2 E.02342
G1 X187.8 Y104.599 E.17385
G1 X187.8 Y105.246 E.02342
G1 X183.754 Y101.2 E.20697
G1 X183.106 Y101.2 E.02342
G1 X198.8 Y116.894 E.80269
G1 X198.8 Y117.541 E.02342
G1 X182.459 Y101.2 E.83581
G1 X181.811 Y101.2 E.02342
G1 X198.8 Y118.189 E.86892
G1 X198.8 Y118.836 E.02342
G1 X181.164 Y101.2 E.90204
G1 X180.516 Y101.2 E.02342
G1 X198.8 Y119.484 E.93516
G1 X198.8 Y120.131 E.02342
G1 X179.869 Y101.2 E.96827
G1 X179.221 Y101.2 E.02342
G1 X198.8 Y120.779 E1.00139
G1 X198.8 Y121.426 E.02342
G1 X178.574 Y101.2 E1.0345
G1 X177.926 Y101.2 E.02342
G1 X198.8 Y122.074 E1.06762
G1 X198.8 Y122.721 E.02342
G1 X177.279 Y101.2 E1.10074
G1 X176.631 Y101.2 E.02342
G1 X198.8 Y123.369 E1.13385
G1 X198.8 Y124.016 E.02342
G1 X175.984 Y101.2 E1.16697
G1 X175.336 Y101.2 E.02342
G1 X198.8 Y124.664 E1.20008
G1 X198.8 Y125.311 E.02342
G1 X174.689 Y101.2 E1.2332
G1 X174.041 Y101.2 E.02342
G1 X198.8 Y125.959 E1.26632
M73 P1 R46
G1 X198.8 Y126.606 E.02342
G1 X173.394 Y101.2 E1.29943
G1 X172.746 Y101.2 E.02342
G1 X198.8 Y127.254 E1.33255
G1 X198.8 Y127.901 E.02342
G1 X172.099 Y101.2 E1.36566
G1 X171.451 Y101.2 E.02342
G1 X198.8 Y128.549 E1.39878
G1 X198.8 Y129.196 E.02342
G1 X170.804 Y101.2 E1.4319
G1 X170.156 Y101.2 E.02342
G1 X198.8 Y129.844 E1.46501
G1 X198.8 Y130.491 E.02342
G1 X169.509 Y101.2 E1.49813
G1 X168.862 Y101.2 E.02342
G1 X198.8 Y131.138 E1.53125
G1 X198.8 Y131.786 E.02342
G1 X168.214 Y101.2 E1.56436
G1 X167.567 Y101.2 E.02342
G1 X198.8 Y132.433 E1.59748
G1 X198.8 Y133.081 E.02342
G1 X166.919 Y101.2 E1.63059
G1 X166.272 Y101.2 E.02342
G1 X198.8 Y133.728 E1.66371
G1 X198.8 Y134.376 E.02342
G1 X165.624 Y101.2 E1.69683
G1 X164.977 Y101.2 E.02342
G1 X198.8 Y135.023 E1.72994
G1 X198.8 Y135.671 E.02342
G1 X164.329 Y101.2 E1.76306
G1 X163.682 Y101.2 E.02342
G1 X198.8 Y136.318 E1.79617
G1 X198.8 Y136.966 E.02342
G1 X163.034 Y101.2 E1.82929
G1 X162.387 Y101.2 E.02342
G1 X198.8 Y137.613 E1.86241
G1 X198.8 Y138.261 E.02342
G1 X161.739 Y101.2 E1.89552
G1 X161.092 Y101.2 E.02342
G1 X198.8 Y138.908 E1.92864
G1 X198.8 Y139.556 E.02342
G1 X160.444 Y101.2 E1.96176
G1 X159.797 Y101.2 E.02342
G1 X198.8 Y140.203 E1.99487
G1 X198.8 Y140.851 E.02342
G1 X159.149 Y101.2 E2.02799
G1 X158.502 Y101.2 E.02342
G1 X198.8 Y141.498 E2.0611
G1 X198.8 Y142.146 E.02342
G1 X157.854 Y101.2 E2.09422
M73 P1 R45
G1 X157.207 Y101.2 E.02342
G1 X198.8 Y142.793 E2.12734
G1 X198.8 Y143.441 E.02342
G1 X156.559 Y101.2 E2.16045
G1 X155.912 Y101.2 E.02342
G1 X198.8 Y144.088 E2.19357
G1 X198.8 Y144.736 E.02342
G1 X155.264 Y101.2 E2.22668
G1 X154.617 Y101.2 E.02342
G1 X198.8 Y145.383 E2.2598
G1 X198.8 Y146.03 E.02342
G1 X153.97 Y101.2 E2.29292
M73 P2 R45
G1 X153.322 Y101.2 E.02342
G1 X198.8 Y146.678 E2.32603
G1 X198.8 Y147.325 E.02342
G1 X152.675 Y101.2 E2.35915
G1 X152.027 Y101.2 E.02342
G1 X198.8 Y147.973 E2.39226
G1 X198.8 Y148.62 E.02342
G1 X151.38 Y101.2 E2.42538
G1 X150.732 Y101.2 E.02342
G1 X198.8 Y149.268 E2.4585
G1 X198.8 Y149.915 E.02342
G1 X150.085 Y101.2 E2.49161
G1 X149.437 Y101.2 E.02342
G1 X198.8 Y150.563 E2.52473
G1 X198.8 Y151.21 E.02342
G1 X148.79 Y101.2 E2.55785
G1 X148.142 Y101.2 E.02342
G1 X198.8 Y151.858 E2.59096
G1 X198.8 Y152.505 E.02342
G1 X147.495 Y101.2 E2.62408
G1 X146.847 Y101.2 E.02342
G1 X198.8 Y153.153 E2.65719
G1 X198.8 Y153.8 E.02342
G1 X146.2 Y101.2 E2.69031
G1 X145.552 Y101.2 E.02342
G1 X198.8 Y154.448 E2.72343
G1 X198.8 Y155.095 E.02342
G1 X144.905 Y101.2 E2.75654
G1 X144.257 Y101.2 E.02342
G1 X198.8 Y155.743 E2.78966
G1 X198.8 Y156.39 E.02342
G1 X143.61 Y101.2 E2.82277
G1 X142.962 Y101.2 E.02342
G1 X198.8 Y157.038 E2.85589
G1 X198.8 Y157.685 E.02342
G1 X142.315 Y101.2 E2.88901
G1 X141.667 Y101.2 E.02342
G1 X198.8 Y158.333 E2.92212
G1 X198.8 Y158.98 E.02342
G1 X141.02 Y101.2 E2.95524
G1 X140.372 Y101.2 E.02342
G1 X198.8 Y159.628 E2.98835
G1 X198.8 Y160.275 E.02342
G1 X139.725 Y101.2 E3.02147
M73 P3 R45
G1 X139.077 Y101.2 E.02342
G1 X198.8 Y160.923 E3.05459
G1 X198.8 Y161.57 E.02342
G1 X138.43 Y101.2 E3.0877
G1 X137.783 Y101.2 E.02342
G1 X198.8 Y162.217 E3.12082
G1 X198.8 Y162.865 E.02342
G1 X137.135 Y101.2 E3.15394
G1 X136.488 Y101.2 E.02342
G1 X198.8 Y163.512 E3.18705
G1 X198.8 Y164.16 E.02342
G1 X135.84 Y101.2 E3.22017
G1 X135.193 Y101.2 E.02342
G1 X198.8 Y164.807 E3.25328
G1 X198.8 Y165.455 E.02342
G1 X134.545 Y101.2 E3.2864
G1 X133.898 Y101.2 E.02342
G1 X198.8 Y166.102 E3.31952
G1 X198.8 Y166.75 E.02342
G1 X133.25 Y101.2 E3.35263
G1 X132.603 Y101.2 E.02342
G1 X198.8 Y167.397 E3.38575
G1 X198.8 Y168.045 E.02342
G1 X131.955 Y101.2 E3.41886
G1 X131.308 Y101.2 E.02342
G1 X198.8 Y168.692 E3.45198
G1 X198.8 Y169.34 E.02342
G1 X130.66 Y101.2 E3.4851
G1 X130.013 Y101.2 E.02342
G1 X198.8 Y169.987 E3.51821
M73 P3 R44
G1 X198.8 Y170.635 E.02342
G1 X129.365 Y101.2 E3.55133
G1 X128.718 Y101.2 E.02342
G1 X198.8 Y171.282 E3.58444
M73 P4 R44
G1 X198.8 Y171.93 E.02342
G1 X128.07 Y101.2 E3.61756
G1 X127.423 Y101.2 E.02342
G1 X198.8 Y172.577 E3.65068
G1 X198.8 Y173.225 E.02342
G1 X126.775 Y101.2 E3.68379
G1 X126.128 Y101.2 E.02342
G1 X198.8 Y173.872 E3.71691
G1 X198.8 Y174.52 E.02342
G1 X125.48 Y101.2 E3.75003
G1 X124.833 Y101.2 E.02342
G1 X198.8 Y175.167 E3.78314
G1 X198.8 Y175.815 E.02342
G1 X124.185 Y101.2 E3.81626
G1 X123.538 Y101.2 E.02342
G1 X198.8 Y176.462 E3.84937
G1 X198.8 Y177.109 E.02342
G1 X122.891 Y101.2 E3.88249
G1 X122.243 Y101.2 E.02342
G1 X198.8 Y177.757 E3.91561
G1 X198.8 Y178.404 E.02342
G1 X121.596 Y101.2 E3.94872
G1 X120.948 Y101.2 E.02342
G1 X198.8 Y179.052 E3.98184
G1 X198.8 Y179.699 E.02342
G1 X120.301 Y101.2 E4.01495
G1 X119.653 Y101.2 E.02342
G1 X198.8 Y180.347 E4.04807
G1 X198.8 Y180.994 E.02342
G1 X119.006 Y101.2 E4.08119
M73 P5 R44
G1 X118.358 Y101.2 E.02342
G1 X198.8 Y181.642 E4.1143
G1 X198.8 Y182.289 E.02342
G1 X117.711 Y101.2 E4.14742
G1 X117.063 Y101.2 E.02342
G1 X198.8 Y182.937 E4.18053
G1 X198.8 Y183.584 E.02342
G1 X116.416 Y101.2 E4.21365
G1 X115.768 Y101.2 E.02342
G1 X198.8 Y184.232 E4.24677
G1 X198.8 Y184.879 E.02342
G1 X115.121 Y101.2 E4.27988
G1 X114.473 Y101.2 E.02342
G1 X198.8 Y185.527 E4.313
G1 X198.8 Y186.174 E.02342
G1 X113.826 Y101.2 E4.34612
G1 X113.178 Y101.2 E.02342
G1 X198.8 Y186.822 E4.37923
G1 X198.8 Y187.469 E.02342
G1 X112.531 Y101.2 E4.41235
G1 X112.2 Y101.2 E.01197
G1 X112.2 Y101.516 E.01145
G1 X198.484 Y187.8 E4.41309
G1 X197.836 Y187.8 E.02342
G1 X112.2 Y102.164 E4.37997
G1 X112.2 Y102.811 E.02342
G1 X197.189 Y187.8 E4.34685
G1 X196.541 Y187.8 E.02342
G1 X112.2 Y103.459 E4.31374
M73 P6 R43
G1 X112.2 Y104.106 E.02342
G1 X195.894 Y187.8 E4.28062
G1 X195.246 Y187.8 E.02342
G1 X112.2 Y104.754 E4.24751
G1 X112.2 Y105.401 E.02342
G1 X194.599 Y187.8 E4.21439
G1 X193.951 Y187.8 E.02342
G1 X112.2 Y106.049 E4.18127
G1 X112.2 Y106.2 E.00547
G1 X111.704 Y106.2 E.01795
G1 X193.8 Y188.296 E4.19893
G1 X193.8 Y188.944 E.02342
G1 X111.056 Y106.2 E4.23205
G1 X110.409 Y106.2 E.02342
G1 X193.8 Y189.591 E4.26516
G1 X193.8 Y190.239 E.02342
G1 X109.761 Y106.2 E4.29828
G1 X109.114 Y106.2 E.02342
G1 X193.8 Y190.886 E4.33139
G1 X193.8 Y191.534 E.02342
G1 X108.466 Y106.2 E4.36451
G1 X107.819 Y106.2 E.02342
G1 X193.8 Y192.181 E4.39763
G1 X193.8 Y192.829 E.02342
G1 X107.171 Y106.2 E4.43074
G1 X106.524 Y106.2 E.02342
G1 X193.8 Y193.476 E4.46386
G1 X193.8 Y193.8 E.01171
G1 X193.476 Y193.8 E.01171
G1 X106.2 Y106.524 E4.46387
M73 P7 R43
G1 X106.2 Y107.171 E.02342
G1 X192.829 Y193.8 E4.43075
G1 X192.181 Y193.8 E.02342
G1 X106.2 Y107.819 E4.39763
G1 X106.2 Y108.466 E.02342
G1 X191.534 Y193.8 E4.36452
G1 X190.887 Y193.8 E.02342
G1 X106.2 Y109.113 E4.3314
G1 X106.2 Y109.761 E.02342
G1 X190.239 Y193.8 E4.29829
G1 X189.592 Y193.8 E.02342
G1 X106.2 Y110.408 E4.26517
G1 X106.2 Y111.056 E.02342
G1 X188.944 Y193.8 E4.23205
G1 X188.297 Y193.8 E.02342
G1 X106.2 Y111.703 E4.19894
G1 X106.2 Y112.2 E.01796
G1 X106.049 Y112.2 E.00546
G1 X187.8 Y193.951 E4.18127
G1 X187.8 Y194.599 E.02342
G1 X105.401 Y112.2 E4.21438
G1 X104.754 Y112.2 E.02342
G1 X187.8 Y195.246 E4.2475
G1 X187.8 Y195.894 E.02342
G1 X104.106 Y112.2 E4.28061
G1 X103.459 Y112.2 E.02342
G1 X187.8 Y196.541 E4.31373
M73 P8 R43
G1 X187.8 Y197.189 E.02342
G1 X102.811 Y112.2 E4.34685
G1 X102.164 Y112.2 E.02342
G1 X187.8 Y197.836 E4.37996
M73 P8 R42
G1 X187.8 Y198.483 E.02342
G1 X101.517 Y112.2 E4.41308
G1 X101.2 Y112.2 E.01145
G1 X101.2 Y112.531 E.01196
G1 X187.469 Y198.8 E4.41235
G1 X186.822 Y198.8 E.02342
G1 X101.2 Y113.178 E4.37924
G1 X101.2 Y113.826 E.02342
G1 X186.174 Y198.8 E4.34612
G1 X185.527 Y198.8 E.02342
G1 X101.2 Y114.473 E4.31301
G1 X101.2 Y115.121 E.02342
G1 X184.879 Y198.8 E4.27989
G1 X184.232 Y198.8 E.02342
G1 X101.2 Y115.768 E4.24677
G1 X101.2 Y116.416 E.02342
G1 X183.584 Y198.8 E4.21366
G1 X182.937 Y198.8 E.02342
G1 X101.2 Y117.063 E4.18054
G1 X101.2 Y117.711 E.02342
G1 X182.289 Y198.8 E4.14743
G1 X181.642 Y198.8 E.02342
G1 X101.2 Y118.358 E4.11431
G1 X101.2 Y119.005 E.02342
G1 X180.995 Y198.8 E4.08119
M73 P9 R42
G1 X180.347 Y198.8 E.02342
G1 X101.2 Y119.653 E4.04808
G1 X101.2 Y120.3 E.02342
G1 X179.7 Y198.8 E4.01496
G1 X179.052 Y198.8 E.02342
G1 X101.2 Y120.948 E3.98185
G1 X101.2 Y121.595 E.02342
G1 X178.405 Y198.8 E3.94873
G1 X177.757 Y198.8 E.02342
G1 X101.2 Y122.243 E3.91561
G1 X101.2 Y122.89 E.02342
G1 X177.11 Y198.8 E3.8825
G1 X176.462 Y198.8 E.02342
G1 X101.2 Y123.538 E3.84938
G1 X101.2 Y124.185 E.02342
G1 X175.815 Y198.8 E3.81626
G1 X175.167 Y198.8 E.02342
G1 X101.2 Y124.833 E3.78315
G1 X101.2 Y125.48 E.02342
G1 X174.52 Y198.8 E3.75003
G1 X173.872 Y198.8 E.02342
G1 X101.2 Y126.128 E3.71692
G1 X101.2 Y126.775 E.02342
G1 X173.225 Y198.8 E3.6838
G1 X172.577 Y198.8 E.02342
G1 X101.2 Y127.423 E3.65068
G1 X101.2 Y128.07 E.02342
G1 X171.93 Y198.8 E3.61757
G1 X171.282 Y198.8 E.02342
G1 X101.2 Y128.718 E3.58445
M73 P10 R42
G1 X101.2 Y129.365 E.02342
G1 X170.635 Y198.8 E3.55134
G1 X169.987 Y198.8 E.02342
G1 X101.2 Y130.013 E3.51822
G1 X101.2 Y130.66 E.02342
G1 X169.34 Y198.8 E3.4851
G1 X168.692 Y198.8 E.02342
G1 X101.2 Y131.308 E3.45199
G1 X101.2 Y131.955 E.02342
G1 X168.045 Y198.8 E3.41887
G1 X167.397 Y198.8 E.02342
G1 X101.2 Y132.603 E3.38576
M73 P10 R41
G1 X101.2 Y133.25 E.02342
G1 X166.75 Y198.8 E3.35264
G1 X166.102 Y198.8 E.02342
G1 X101.2 Y133.898 E3.31952
G1 X101.2 Y134.545 E.02342
G1 X165.455 Y198.8 E3.28641
G1 X164.808 Y198.8 E.02342
G1 X101.2 Y135.192 E3.25329
G1 X101.2 Y135.84 E.02342
G1 X164.16 Y198.8 E3.22017
G1 X163.513 Y198.8 E.02342
G1 X101.2 Y136.487 E3.18706
G1 X101.2 Y137.135 E.02342
G1 X162.865 Y198.8 E3.15394
G1 X162.218 Y198.8 E.02342
G1 X101.2 Y137.782 E3.12083
G1 X101.2 Y138.43 E.02342
G1 X161.57 Y198.8 E3.08771
G1 X160.923 Y198.8 E.02342
G1 X101.2 Y139.077 E3.05459
G1 X101.2 Y139.725 E.02342
G1 X160.275 Y198.8 E3.02148
G1 X159.628 Y198.8 E.02342
G1 X101.2 Y140.372 E2.98836
M73 P11 R41
G1 X101.2 Y141.02 E.02342
G1 X158.98 Y198.8 E2.95525
G1 X158.333 Y198.8 E.02342
G1 X101.2 Y141.667 E2.92213
G1 X101.2 Y142.315 E.02342
G1 X157.685 Y198.8 E2.88901
G1 X157.038 Y198.8 E.02342
G1 X101.2 Y142.962 E2.8559
G1 X101.2 Y143.61 E.02342
G1 X156.39 Y198.8 E2.82278
G1 X155.743 Y198.8 E.02342
G1 X101.2 Y144.257 E2.78967
G1 X101.2 Y144.905 E.02342
G1 X155.095 Y198.8 E2.75655
G1 X154.448 Y198.8 E.02342
G1 X101.2 Y145.552 E2.72343
G1 X101.2 Y146.2 E.02342
G1 X153.8 Y198.8 E2.69032
G1 X153.153 Y198.8 E.02342
G1 X101.2 Y146.847 E2.6572
G1 X101.2 Y147.495 E.02342
G1 X152.505 Y198.8 E2.62408
G1 X151.858 Y198.8 E.02342
G1 X101.2 Y148.142 E2.59097
G1 X101.2 Y148.79 E.02342
G1 X151.21 Y198.8 E2.55785
G1 X150.563 Y198.8 E.02342
G1 X101.2 Y149.437 E2.52474
G1 X101.2 Y150.084 E.02342
G1 X149.916 Y198.8 E2.49162
G1 X149.268 Y198.8 E.02342
G1 X101.2 Y150.732 E2.4585
G1 X101.2 Y151.379 E.02342
G1 X148.621 Y198.8 E2.42539
G1 X147.973 Y198.8 E.02342
G1 X101.2 Y152.027 E2.39227
G1 X101.2 Y152.674 E.02342
G1 X147.326 Y198.8 E2.35916
G1 X146.678 Y198.8 E.02342
G1 X101.2 Y153.322 E2.32604
G1 X101.2 Y153.969 E.02342
G1 X146.031 Y198.8 E2.29292
G1 X145.383 Y198.8 E.02342
